X: 28935
T: Nameless
R: jig
M: 6/8
K: Bminor
f2B B2c|d2e c/B/ A2|f2B B2c|c<ef A<(BB)|
f2B B2c|d2e c/B/ A2|B2c f2c|e/(A/A2) A<(BB):|
|:B2c c<de|f/(a/a2) e/(f/f2)|f>Bd f>Bd|e2cB3|
B2c d>ef|e2d B<(cc)|f2B B<AA/</B/|d>ec A<(BB):|

